X:1
T:The song of the 3 children
T:John Farmer
T:Source : The Whole Book of Psalms---London---Musical Antiquarian Society---1844. First publication : London---Th.Est(e)---1592. Editor : André Vierendeels (21/08/16).
T:Notes : Original clefs : C1, C3, C4, F4 Editorial accidentals above the staff
T:The song of the 3 children
T:©
T:©
C:John Farmer
Z:©
%%score [ 1 [ 2 3 ] 4 ]
L:1/8
Q:1/4=120
M:4/4
K:F
V:1 treble nm="Soprano" snm="S"
V:2 treble-8 nm="Tenor 1" snm="T 1"
V:3 treble-8 nm="Tenor 2" snm="T 2"
V:4 bass nm="Bass" snm="B"
V:1
 A8 | B4 G4 | F4 c4 | A4 G4 | G8 || F4 G4 | E8 | ^F8 ||"^-natural" F8 | G4 A4 | B6 B2 | A4 A4- | %12
w: O,|all ye|works of|God, the|Lord,|bless ye|the|Lord,|praise|him and|ma- gni-|fy him|
 A2 G2 F4- | F2 G2 E4 | F8 |] %15
w: _ for e-||ver.|
V:2
 c8 | d4 c4 | A2 d2 e4 | f4 d4 | e8 || d4 G4 | A8 | A8 || d8 | e4 c4 | f6 f2 | f4 f4 | c8 | c8 | %14
w: O,|all ye|works _ of|God, the|Lord,|bless ye|the|Lord,|praise|him and|ma- gni-|fy him|for|e-|
 c8 |] %15
w: ver.|
V:3
 F8 | F4 E4 | F4 G4 | A4 B4 | c8 || A4 d4- | d4 ^c4 | d8 || A8 | c4 A4 | d6 d2 | c4 F4 | A8 | G8 | %14
w: O,|all ye|works of|God, the|Lord,|bless ye|_ the|Lord,|praise|him and|ma- gni-|fy him|for|e-|
 F8 |] %15
w: ver.|
V:4
 F,,8 | B,,4 C,4 | D,4 C,4 | F,4 G,4 | C,8 || D,4 B,,4 | A,,8 | D,8 || D,8 | C,4 F,4 | B,,6 B,,2 | %11
w: O,|all ye|works of|God, the|Lord,|bless ye|tha|Lord,|praise|him and|ma- gni-|
 F,4 D,4 | A,,8 | C,8 | F,,8 |] %15
w: fy him|for|e-|ver|

